assets/images/icon-chart.svg

<svg fill="none" height="59" viewBox="0 0 80 59" width="80" xmlns="http://www.w3.org/2000/svg"><g clip-rule="evenodd" fill="#000" fill-rule="evenodd"><path d="m18 45.301h-8.99998v9.6992l8.99998-2.3008z"/><path d="m35 41.301v-8h-9v13.5l7-6.4023z"/><path d="m50.398 34.102 1.6016.6992v-14.5h-9v24.301l1.3984.5977z"/><path d="m69 6.30101h-9v25.69899l9-17.602z"/><path d="m69 58.301v-32.902l-9 17.5v15.402h-8v-16.602l-5.3984 9.8008-3.6016-1.5v8.3008h-8v-11.602l-1-.3984-8 7.3008v4.6992h-13.898l5.8984-1.5 4.3008-1.1016 3.6992-3.3984 7.8008-7.1992 1.1992.5 8 3.2969 3.1992 1.3008 5.8008-10.598.1992-.3008 7 3 .8008-1.6016 19.898-38.69901-2.6992-1.300804-8.1992 15.902014-9 17.598-2.1992 4.1992-5.8008-2.5-1.1016-.5-6 11-1.8984-.6992-8-3.3984-1.8008-.6993-7.1992 6.5977-5.1992 4.8008-2.8008.6993-8.99998 2.4023-8.800801 2.1992z"/></g></svg>

<svg width="80" height="59" viewBox="0 0 80 59" fill="none" xmlns="http://www.w3.org/2000/svg">
<path fill-rule="evenodd" clip-rule="evenodd" d="M18 45.301H9.00002V55.0002L18 52.6994V45.301Z" fill="black"/>
<path fill-rule="evenodd" clip-rule="evenodd" d="M35 41.301V33.301H26V46.801L33 40.3987L35 41.301Z" fill="black"/>
<path fill-rule="evenodd" clip-rule="evenodd" d="M50.398 34.102L51.9996 34.8012V20.3012H42.9996V44.6022L44.398 45.1999L50.398 34.102Z" fill="black"/>
<path fill-rule="evenodd" clip-rule="evenodd" d="M69 6.30101H60V32L69 14.398V6.30101Z" fill="black"/>
<path fill-rule="evenodd" clip-rule="evenodd" d="M69 58.301V25.399L60 42.899V58.301H52V41.699L46.6016 51.4998L43 49.9998V58.3006H35V46.6986L34 46.3002L26 53.601V58.3002H12.102L18.0004 56.8002L22.3012 55.6986L26.0004 52.3002L33.8012 45.101L35.0004 45.601L43.0004 48.8979L46.1996 50.1987L52.0004 39.6007L52.1996 39.2999L59.1996 42.2999L60.0004 40.6983L79.8984 1.99929L77.1992 0.698486L69 16.6005L60 34.1985L57.8008 38.3977L52 35.8977L50.8984 35.3977L44.8984 46.3977L43 45.6985L35 42.3001L33.1992 41.6008L26 48.1985L20.8008 52.9993L18 53.6986L9.00002 56.1009L0.199219 58.3001L69 58.301Z" fill="black"/>
</svg>
